X: 1770
T: April Sunshine
R: reel
M: 4/4
K: Dmajor
|:d2cd BAFA|BEE2 BAFA|d2cd BAFB|Adfa g2fe|
defd BAFA|BEE2 BAFA|BFAF DEFD|E2DE FDDA:|
|:dcd ef2fe|defa g2fe|dcde fdef|dBA FFEE2|
ABde f2fe|defa g2fe|dBAF DEFD|E2DE FDD2:|

